X: 20
T:Young Collins, Longborough 1
M:2/2
L:1/8
A:Longborough
P:A(A2B2)4
K:A
P:A
ABcd e2e2|d2d2 c4|d2Bd c2A2|B2G2 A4||
P:B
F2F2 F3 E|G2G2 G4|A2A2 ABcd|e2e2 e4|
e2ee d2d2|c2A2 B4|e2ce d2Bd|c2A2 A4||
